TF1/histpfunc.svg

<svg xmlns="http://www.w3.org/2000/svg" viewBox="0 0 1200 800" preserveAspectRatio="none" width="1200" height="800">
 <title>
  fillrandom.root/sqroot;1
 </title>
 <rect x="0" y="0" width="1200" height="800" style="fill: none;"></rect>
 <g>
  <g transform="translate(120,80)">
   <title></title>
   <rect x="0" y="0" width="960" height="640" style="fill: white; stroke: black; stroke-width: 1;"></rect>
   <svg x="0" y="0" overflow="hidden" width="960" height="640" viewBox="0 0 960 640">
    <g>
     <path d="M0,415h5v-4h5v39h4v-46h5v21h5v11h5v-18h5v-46h4v64h5v-60h5v14h5v56h5v-10h4v10h5v-7h5v-35h5v-53h5v120h4v-42h5v49h5v-74h5v99h5v-57h4v-35h5v85h5v-43h5v11h5v46h4v-46h5v46h5v-14h5v-29h5v21h9v46h5v-35h5v-11h5v22h4v21h5v-57h5v-14h5v25h5v-18h4v25h5v18h5v35h5v-60h5v28h4v-46h5v36h5v-53h5v10h5v57h4v-64h5v39h5v-56h5v3h5v39h4v-74h5v-25h5v-28h5v123h5v-63h9v-81h5v-28h5v35h5v-35h4v10h5v-81h5v36h10v-46h4v-32h5v11h5v-113h5v148h5v-53h4v-106h5v67h5v28h5v-141h5v117h4v-67h5v10h5v57h5v-64h5v4h4v28h5v11h5v-29h5v120h5v35h4v-112h5v17h5v-24h5v56h5v56h4v-24h5v24h5v-3h5v14h5v32h4v53h5v-29h5v-14h5v57h5v-32h4v60h5v21h5v35h5v-7h5v4h4v56h5v-35h5v28h5v32h5v-29h4v46h5v11h5v-7h5v24h5v8h4v-15h5v29h5v-29h5v36h5v-25h4v11h5v21h10v17h5v-17h4v7h5v-11h5v11h5v7h5v-14h4v-4h5v25h5v-32h5v11h5v17h4v-14h5v14h5v-3h10v-7h4v24h5v-14h5v-7h5v-7h5v4h4v7h5v-50h5v60h5v-28h5v11h4v10h10v7h5v-14h9v11h5v-18h5v7h5v21h5v-7h4v-7h5v4h5v3h5v-7h5v14h4v-3h10v-4h5v4h5v-4h4v-3h5v17h5v-3h14v7h5v-7h5v3h5v4h5v-4h4v4h5v-7h5v3h5v4h5v-4h4v-3h10v-4h14v-10h5v14h5L960,643L0,643Z" style="stroke-linejoin: miter; stroke: rgb(0,0,154); stroke-width: 1; fill: rgb(192,131,120);"></path>
    </g>
    <g>
     <path d="M9.6,569.65c1.6,0.06,6.41,0.19,9.6,0.35s6.42,0.35,9.6,0.58s6.43,0.5,9.6,0.8s6.44,0.65,9.6,1.02s6.46,0.79,9.6,1.23s6.48,0.93,9.6,1.42s6.5,1.06,9.6,1.6s6.51,1.17,9.6,1.76s6.53,1.28,9.6,1.9s6.54,1.36,9.6,2.02s6.55,1.42,9.6,2.1s6.55,1.46,9.6,2.14s6.55,1.47,9.6,2.15s6.54,1.45,9.6,2.1s6.52,1.38,9.6,1.99s6.5,1.28,9.6,1.83s6.47,1.12,9.6,1.59s6.44,0.93,9.6,1.29s6.42,0.68,9.6,0.9s6.4,0.4,9.6,0.44s6.4,-0.01,9.6,-0.1s6.44,-0.37,9.6,-0.71s6.5,-0.83,9.6,-1.39s6.6,-1.34,9.6,-2.12s6.73,-1.91,9.6,-2.89s6.88,-2.52,9.6,-3.67s7.04,-3.15,9.6,-4.43s7.19,-3.78,9.6,-5.16s7.32,-4.37,9.6,-5.82s7.69,-4.8,9.6,-6.37s8.11,-7.77,9.6,-9.36s8.23,-9.63,9.6,-11.22s8.18,-9.39,9.6,-10.98s8.1,-8.94,9.6,-10.53s7.97,-8.26,9.6,-9.86s7.79,-7.38,9.6,-8.97s7.56,-6.33,9.6,-7.86s7.26,-5.15,9.6,-6.57s6.94,-3.92,9.6,-5.11s6.64,-2.7,9.6,-3.53s6.41,-1.72,9.6,-1.87s6.4,-0.27,9.6,-0.18s6.58,0.77,9.6,1.5s6.85,2.01,9.6,3.12s7.15,3.27,9.6,4.63s7.42,4.5,9.6,5.99s7.65,5.61,9.6,7.17s7.81,6.56,9.6,8.15s7.93,7.31,9.6,8.91s8,7.85,9.6,9.45s8.04,8.16,9.6,9.76s8.04,8.27,9.6,9.87s8.01,8.19,9.6,9.79s7.96,7.94,9.6,9.54s7.88,7.55,9.6,9.15s7.78,7.06,9.6,8.65s7.66,6.5,9.6,8.07s7.53,5.9,9.6,7.43s7.39,5.28,9.6,6.76s7.25,4.68,9.6,6.09s7.07,4.13,9.6,5.43s6.72,3.46,9.6,4.42s6.51,1.44,9.6,2.01s6.46,1.11,9.6,1.55s6.43,0.83,9.6,1.15s6.42,0.59,9.6,0.82s6.41,0.4,9.6,0.55s6.4,0.25,9.6,0.34s6.4,0.14,9.6,0.18s6.4,0.07,9.6,0.07s6.4,0,9.6,0s6.4,-0.02,9.6,-0.04s6.4,-0.03,9.6,-0.04s6.4,-0.03,9.6,-0.03s6.4,0,9.6,0.01s6.4,0.03,9.6,0.05s6.4,0.06,9.6,0.11s6.4,0.1,9.6,0.17s6.4,0.15,9.6,0.24s6.4,0.19,9.6,0.31s6.41,0.24,9.6,0.37s6.41,0.28,9.6,0.44s6.41,0.32,9.6,0.5s6.41,0.36,9.6,0.56s6.41,0.4,9.6,0.61s6.42,0.43,9.6,0.65s6.42,0.45,9.6,0.69s6.42,0.48,9.6,0.72s6.42,0.49,9.6,0.74s6.42,0.5,9.6,0.76s6.42,0.51,9.6,0.76s6.42,0.51,9.6,0.76s6.4,0.69,9.6,0.76s6.41,-0.19,9.6,-0.37s6.42,-0.49,9.6,-0.72s6.42,-0.47,9.6,-0.69s6.41,-0.45,9.6,-0.66s6.41,-0.42,9.6,-0.62s8.01,-0.48,9.6,-0.58" style="fill: none; stroke: blue; stroke-width: 6;"></path>
    </g>
   </svg>
   <g>
    <g transform="translate(0,640)">
     <line x1="0" y1="0" x2="960" y2="0" style="stroke: black; stroke-width: 1;"></line>
     <path d="M0,-24v24m48,-12v12m48,-12v12m48,-12v12m48,-24v24m48,-12v12m48,-12v12m48,-12v12m48,-24v24m48,-12v12m48,-12v12m48,-12v12m48,-24v24m48,-12v12m48,-12v12m48,-12v12m48,-24v24m48,-12v12m48,-12v12m48,-12v12m48,-24v24" style="stroke: black; stroke-width: 1;"></path>
     <g font-family="Arial" font-size="28" space="preserve">
      <text fill="black" text-anchor="middle" dy=".8em" transform="translate(0,6)">
       0
      </text>
      <text fill="black" text-anchor="middle" dy=".8em" transform="translate(192,6)">
       2
      </text>
      <text fill="black" text-anchor="middle" dy=".8em" transform="translate(384,6)">
       4
      </text>
      <text fill="black" text-anchor="middle" dy=".8em" transform="translate(576,6)">
       6
      </text>
      <text fill="black" text-anchor="middle" dy=".8em" transform="translate(768,6)">
       8
      </text>
      <text fill="black" text-anchor="middle" dy=".8em" transform="translate(960,6)">
       10
      </text>
     </g>
    </g>
    <g>
     <line x1="0" y1="0" x2="0" y2="640" style="stroke: black; stroke-width: 1;"></line>
     <path d="M36,640h-36m18,-18h-18m18,-17h-18m18,-18h-18m36,-17h-36m18,-18h-18m18,-18h-18m18,-17h-18m36,-18h-36m18,-18h-18m18,-17h-18m18,-18h-18m36,-17h-36m18,-18h-18m18,-18h-18m18,-17h-18m36,-18h-36m18,-17h-18m18,-18h-18m18,-18h-18m36,-17h-36m18,-18h-18m18,-18h-18m18,-17h-18m36,-18h-36m18,-17h-18m18,-18h-18m18,-18h-18m36,-17h-36m18,-18h-18m18,-17h-18m18,-18h-18m36,-18h-36m18,-17h-18m18,-18h-18m18,-18h-18m36,-17h-36" style="stroke: black; stroke-width: 1;"></path>
     <g font-family="Arial" font-size="28" space="preserve">
      <text fill="black" text-anchor="end" dy=".4em" transform="translate(-4,640)">
       0
      </text>
      <text fill="black" text-anchor="end" dy=".4em" transform="translate(-4,570)">
       20
      </text>
      <text fill="black" text-anchor="end" dy=".4em" transform="translate(-4,499)">
       40
      </text>
      <text fill="black" text-anchor="end" dy=".4em" transform="translate(-4,429)">
       60
      </text>
      <text fill="black" text-anchor="end" dy=".4em" transform="translate(-4,358)">
       80
      </text>
      <text fill="black" text-anchor="end" dy=".4em" transform="translate(-4,288)">
       100
      </text>
      <text fill="black" text-anchor="end" dy=".4em" transform="translate(-4,217)">
       120
      </text>
      <text fill="black" text-anchor="end" dy=".4em" transform="translate(-4,147)">
       140
      </text>
      <text fill="black" text-anchor="end" dy=".4em" transform="translate(-4,76)">
       160
      </text>
      <text fill="black" text-anchor="end" dy=".4em" transform="translate(-4,6)">
       180
      </text>
     </g>
    </g>
   </g>
  </g>
  <g transform="translate(120,4)" font-family="Arial" font-size="40" space="preserve">
   <path d="M0,0h960v53h-960z" style="fill: none;"></path>
   <text fill="black" text-anchor="middle" dy=".8em" transform="translate(480,0)">
    Test random numbers
   </text>
  </g>
  <g transform="translate(936,52)" font-family="Arial" font-size="26" space="preserve">
   <path d="M0,0h240v128h-240z" style="fill: white; stroke: black; stroke-width: 1;"></path>
   <text fill="black" text-anchor="middle" dy=".4em" transform="translate(120,16)">
    h1f
   </text>
   <text fill="black" text-anchor="start" dy=".4em" transform="translate(12,48)">
    Entries
   </text>
   <text fill="black" text-anchor="end" dy=".4em" transform="translate(228,48)">
    10000
   </text>
   <text fill="black" text-anchor="start" dy=".4em" transform="translate(12,80)">
    Mean
   </text>
   <text fill="black" text-anchor="end" dy=".4em" transform="translate(228,80)">
    3.637
   </text>
   <text fill="black" text-anchor="start" dy=".4em" transform="translate(12,112)">
    Std Dev
   </text>
   <text fill="black" text-anchor="end" dy=".4em" transform="translate(228,112)">
    1.834
   </text>
   <path d="M0,32h240" style="stroke: black; stroke-width: 1;"></path>
  </g>
 </g>
</svg>

<svg xmlns="http://www.w3.org/2000/svg" viewBox="0 0 1200 800" preserveAspectRatio="none" width="1200" height="800">
 <title>
  fillrandom.root/sqroot;1
 </title>
 <rect x="0" y="0" width="1200" height="800" style="fill: none;"></rect>
 <g>
  <g transform="translate(120,80)">
   <title></title>
   <rect x="0" y="0" width="960" height="640" style="fill: white; stroke: black; stroke-width: 1;"></rect>
   <svg x="0" y="0" overflow="hidden" width="960" height="640" viewBox="0 0 960 640">
    <g>
     <path d="M0,415h5v-4h5v39h4v-46h5v21h5v11h5v-18h5v-46h4v64h5v-60h5v14h5v56h5v-10h4v10h5v-7h5v-35h5v-53h5v120h4v-42h5v49h5v-74h5v99h5v-57h4v-35h5v85h5v-43h5v11h5v46h4v-46h5v46h5v-14h5v-29h5v21h9v46h5v-35h5v-11h5v22h4v21h5v-57h5v-14h5v25h5v-18h4v25h5v18h5v35h5v-60h5v28h4v-46h5v36h5v-53h5v10h5v57h4v-64h5v39h5v-56h5v3h5v39h4v-74h5v-25h5v-28h5v123h5v-63h9v-81h5v-28h5v35h5v-35h4v10h5v-81h5v36h10v-46h4v-32h5v11h5v-113h5v148h5v-53h4v-106h5v67h5v28h5v-141h5v117h4v-67h5v10h5v57h5v-64h5v4h4v28h5v11h5v-29h5v120h5v35h4v-112h5v17h5v-24h5v56h5v56h4v-24h5v24h5v-3h5v14h5v32h4v53h5v-29h5v-14h5v57h5v-32h4v60h5v21h5v35h5v-7h5v4h4v56h5v-35h5v28h5v32h5v-29h4v46h5v11h5v-7h5v24h5v8h4v-15h5v29h5v-29h5v36h5v-25h4v11h5v21h10v17h5v-17h4v7h5v-11h5v11h5v7h5v-14h4v-4h5v25h5v-32h5v11h5v17h4v-14h5v14h5v-3h10v-7h4v24h5v-14h5v-7h5v-7h5v4h4v7h5v-50h5v60h5v-28h5v11h4v10h10v7h5v-14h9v11h5v-18h5v7h5v21h5v-7h4v-7h5v4h5v3h5v-7h5v14h4v-3h10v-4h5v4h5v-4h4v-3h5v17h5v-3h14v7h5v-7h5v3h5v4h5v-4h4v4h5v-7h5v3h5v4h5v-4h4v-3h10v-4h14v-10h5v14h5L960,643L0,643Z" style="stroke-linejoin: miter; stroke: rgb(0,0,154); stroke-width: 1; fill: rgb(192,131,120);"></path>
    </g>
    <g>
     <path d="M9.6,569.65C11.2,569.71,16.01,569.84,19.2,570S25.62,570.35,28.8,570.58S35.23,571.08,38.4,571.38S44.84,572.03,48,572.4S54.46,573.19,57.6,573.62S64.08,574.55,67.2,575.04S73.7,576.1,76.8,576.65S83.31,577.82,86.4,578.41S92.93,579.69,96,580.31S102.54,581.68,105.6,582.33S112.15,583.76,115.2,584.43S121.75,585.89,124.8,586.57S131.35,588.05,134.4,588.72S140.94,590.17,144,590.82S150.52,592.2,153.6,592.81S160.1,594.09,163.2,594.64S169.67,595.77,172.8,596.24S179.24,597.16,182.4,597.52S188.82,598.2,192,598.43S198.4,598.83,201.6,598.87S208,598.86,211.2,598.76S217.64,598.4,220.8,598.05S227.3,597.22,230.4,596.66S237,595.32,240,594.54S246.73,592.63,249.6,591.65S256.48,589.13,259.2,587.98S266.24,584.83,268.8,583.55S275.99,579.77,278.4,578.39S285.72,574.02,288,572.58S295.69,567.78,297.6,566.21S305.71,558.44,307.2,556.85S315.43,547.21,316.8,545.63S324.98,536.24,326.4,534.65S334.5,525.71,336,524.11S343.97,515.85,345.6,514.25S353.39,506.87,355.2,505.29S362.76,498.96,364.8,497.42S372.06,492.27,374.4,490.85S381.34,486.94,384,485.74S390.64,483.04,393.6,482.2S400.01,480.48,403.2,480.33S409.6,480.06,412.8,480.15S419.38,480.93,422.4,481.66S429.25,483.67,432,484.78S439.15,488.05,441.6,489.41S449.02,493.91,451.2,495.4S458.85,501.01,460.8,502.57S468.61,509.14,470.4,510.73S478.33,518.04,480,519.64S488,527.49,489.6,529.09S497.64,537.25,499.2,538.85S507.24,547.12,508.8,548.72S516.81,556.91,518.4,558.51S526.36,566.45,528,568.05S535.88,575.6,537.6,577.2S545.38,584.26,547.2,585.85S554.86,592.35,556.8,593.92S564.33,599.82,566.4,601.35S573.79,606.63,576,608.11S583.25,612.79,585.6,614.2S592.67,618.33,595.2,619.63S601.92,623.09,604.8,624.05S611.31,625.49,614.4,626.06S620.86,627.16,624,627.61S630.43,628.43,633.6,628.76S640.02,629.35,643.2,629.58S649.61,629.98,652.8,630.13S659.2,630.38,662.4,630.47S668.8,630.6,672,630.65S678.4,630.72,681.6,630.72S688,630.72,691.2,630.72S697.6,630.69,700.8,630.68S707.2,630.65,710.4,630.64S716.8,630.61,720,630.61S726.4,630.61,729.6,630.62S736,630.64,739.2,630.67S745.6,630.73,748.8,630.78S755.2,630.88,758.4,630.95S764.8,631.1,768,631.19S774.4,631.39,777.6,631.5S784.01,631.74,787.2,631.87S793.61,632.16,796.8,632.31S803.21,632.64,806.4,632.81S812.81,633.18,816,633.37S822.41,633.77,825.6,633.97S832.02,634.4,835.2,634.63S841.62,635.08,844.8,635.31S851.22,635.79,854.4,636.03S860.82,636.52,864,636.77S870.42,637.28,873.6,637.53S880.02,638.04,883.2,638.29S889.62,638.8,892.8,639.06S899.2,639.75,902.4,639.81S908.81,639.62,912,639.44S918.42,638.96,921.6,638.72S928.02,638.25,931.2,638.03S937.61,637.58,940.8,637.36S947.21,636.94,950.4,636.74S958.41,636.26,960,636.17" style="fill: none; stroke: blue; stroke-width: 6;"></path>
    </g>
   </svg>
   <g>
    <g transform="translate(0,640)">
     <line x1="0" y1="0" x2="960" y2="0" style="stroke: black; stroke-width: 1;"></line>
     <path d="M0,-24v24m48,-12v12m48,-12v12m48,-12v12m48,-24v24m48,-12v12m48,-12v12m48,-12v12m48,-24v24m48,-12v12m48,-12v12m48,-12v12m48,-24v24m48,-12v12m48,-12v12m48,-12v12m48,-24v24m48,-12v12m48,-12v12m48,-12v12m48,-24v24" style="stroke: black; stroke-width: 1;"></path>
     <g font-family="Arial" font-size="28" space="preserve">
      <text fill="black" text-anchor="middle" dy=".8em" transform="translate(0,6)">
       0
      </text>
      <text fill="black" text-anchor="middle" dy=".8em" transform="translate(192,6)">
       2
      </text>
      <text fill="black" text-anchor="middle" dy=".8em" transform="translate(384,6)">
       4
      </text>
      <text fill="black" text-anchor="middle" dy=".8em" transform="translate(576,6)">
       6
      </text>
      <text fill="black" text-anchor="middle" dy=".8em" transform="translate(768,6)">
       8
      </text>
      <text fill="black" text-anchor="middle" dy=".8em" transform="translate(960,6)">
       10
      </text>
     </g>
    </g>
    <g>
     <line x1="0" y1="0" x2="0" y2="640" style="stroke: black; stroke-width: 1;"></line>
     <path d="M36,640h-36m18,-18h-18m18,-17h-18m18,-18h-18m36,-17h-36m18,-18h-18m18,-18h-18m18,-17h-18m36,-18h-36m18,-18h-18m18,-17h-18m18,-18h-18m36,-17h-36m18,-18h-18m18,-18h-18m18,-17h-18m36,-18h-36m18,-17h-18m18,-18h-18m18,-18h-18m36,-17h-36m18,-18h-18m18,-18h-18m18,-17h-18m36,-18h-36m18,-17h-18m18,-18h-18m18,-18h-18m36,-17h-36m18,-18h-18m18,-17h-18m18,-18h-18m36,-18h-36m18,-17h-18m18,-18h-18m18,-18h-18m36,-17h-36" style="stroke: black; stroke-width: 1;"></path>
     <g font-family="Arial" font-size="28" space="preserve">
      <text fill="black" text-anchor="end" dy=".4em" transform="translate(-4,640)">
       0
      </text>
      <text fill="black" text-anchor="end" dy=".4em" transform="translate(-4,570)">
       20
      </text>
      <text fill="black" text-anchor="end" dy=".4em" transform="translate(-4,499)">
       40
      </text>
      <text fill="black" text-anchor="end" dy=".4em" transform="translate(-4,429)">
       60
      </text>
      <text fill="black" text-anchor="end" dy=".4em" transform="translate(-4,358)">
       80
      </text>
      <text fill="black" text-anchor="end" dy=".4em" transform="translate(-4,288)">
       100
      </text>
      <text fill="black" text-anchor="end" dy=".4em" transform="translate(-4,217)">
       120
      </text>
      <text fill="black" text-anchor="end" dy=".4em" transform="translate(-4,147)">
       140
      </text>
      <text fill="black" text-anchor="end" dy=".4em" transform="translate(-4,76)">
       160
      </text>
      <text fill="black" text-anchor="end" dy=".4em" transform="translate(-4,6)">
       180
      </text>
     </g>
    </g>
   </g>
  </g>
  <g transform="translate(120,4)" font-family="Arial" font-size="40" space="preserve">
   <path d="M0,0h960v53h-960z" style="fill: none;"></path>
   <text fill="black" text-anchor="middle" dy=".8em" transform="translate(480,0)">
    Test random numbers
   </text>
  </g>
  <g transform="translate(936,52)" font-family="Arial" font-size="26" space="preserve">
   <path d="M0,0h240v128h-240z" style="fill: white; stroke: black; stroke-width: 1;"></path>
   <text fill="black" text-anchor="middle" dy=".4em" transform="translate(120,16)">
    h1f
   </text>
   <text fill="black" text-anchor="start" dy=".4em" transform="translate(12,48)">
    Entries
   </text>
   <text fill="black" text-anchor="end" dy=".4em" transform="translate(228,48)">
    10000
   </text>
   <text fill="black" text-anchor="start" dy=".4em" transform="translate(12,80)">
    Mean
   </text>
   <text fill="black" text-anchor="end" dy=".4em" transform="translate(228,80)">
    3.637
   </text>
   <text fill="black" text-anchor="start" dy=".4em" transform="translate(12,112)">
    Std Dev
   </text>
   <text fill="black" text-anchor="end" dy=".4em" transform="translate(228,112)">
    1.834
   </text>
   <path d="M0,32h240" style="stroke: black; stroke-width: 1;"></path>
  </g>
 </g>
</svg>
